static/assets/template/assets/img/icons/essential/detailed/Shield.svg

<svg height="149" viewBox="0 0 130 149" width="130" xmlns="http://www.w3.org/2000/svg"><g fill="none" fill-rule="evenodd" transform="translate(1 1)"><path d="m127.1 21.9v.2c-.3 35.6-1.7 58.7-10.2 76.9-8.5 18.1-24.1 31.1-52.5 46.5-.2.1-.3.2-.5.2-57.5-31-62.7-52.5-63.2-123.8h1.6c16.1 0 42.7-8.5 61.6-21.4 19.5 13.4 47.3 22.1 63.2 21.4z" fill-rule="nonzero"/><path d="m127.1 22.1c-.3 35.6-1.7 58.7-10.2 76.9-8.5 18.1-24.1 31.1-52.5 46.5-.1-.1-.1-.2 0-.2-50.4-34.9-58.9-47.5-59.4-118.9 15.9.6 41.8-9.6 61.4-22.9l1.4 1c18.1 12.3 43.1 17.4 59.3 17.6z" fill-rule="nonzero"/><path d="m127 31c0-2.9.1-6 .1-9.1-15.9.6-43.6-8-63.2-21.3-3.2 2.2-6.7 4.2-10.2 6.2" stroke-linecap="round" stroke-linejoin="round" stroke-width="2.9264"/><path d="m126.8 40.4c0-1.2.1-2.4.1-3.6" stroke-linecap="round" stroke-linejoin="round" stroke-width="2.9264"/><path d="m44.8 11.1c-15.9 7.1-33 11.3-44.1 10.8.5 71.3 5.7 92.8 63.2 123.8 44.9-24.2 57.9-42.6 61.7-83.5" stroke-linecap="round" stroke-linejoin="round" stroke-width="2.9264"/><path d="m116.8 31.6v1.2c-.5 29.3-2.4 47.6-9.1 61.9-6.7 14.2-18.8 25.4-42.5 38.8-.4.2-.9.5-1.3.8-24.5-13.7-37-25.1-43.8-39.5-6.8-14.5-8.7-33.1-9.2-63.1 16.4-2 36.7-9.2 52.9-18.9 1.3.8 2.6 1.5 3.9 2.3 4.7 2.6 9.7 5 14.8 7.1 11.8 4.7 23.8 8.1 34.3 9.4z" fill-rule="nonzero"/><path d="m116.8 32.8c-.5 29.3-2.4 47.6-9.1 61.9-6.7 14.2-18.8 25.4-42.5 38.8-12.8-7.4-22.1-14.1-28.9-21.1-5-5.2-8.7-10.5-11.4-16.3-6.8-14.3-8.6-32.9-9.1-62.6 16.1-2 36-9 52-18.5.2-.1.4-.2.5-.3 4.5 2.7 9.3 5.2 14.3 7.5 8.3 3.7 16.9 6.8 25.1 8.8 3.2.6 6.2 1.3 9.1 1.8z" fill-rule="nonzero"/><path d="m116.8 32.8c-.5 29.3-2.4 47.6-9.1 61.9-6.7 14.2-18.8 25.4-42.5 38.8-12.8-7.4-22.1-14.1-28.9-21.1 25.3-3.1 63.5-11.9 79.7-80.5 3.1.7-2.1.4.8.9z" fill-rule="nonzero"/><g stroke-linecap="round" stroke-linejoin="round" stroke-width="2.9264"><path d="m15.6 81.9c-.1-.6-.3-1.1-.4-1.7"/><path d="m13 67.9c-1.3-10-1.8-21.8-2.1-36.3 16.4-2 36.7-9.2 52.9-18.9 16.2 9.7 36.5 16.9 52.9 18.9-.5 30-2.3 48.6-9.2 63.1-6.8 14.5-19.3 25.8-43.8 39.5-24.5-13.7-37-25.1-43.8-39.5-.6-1.2-1.1-2.4-1.6-3.7"/><path d="m55.9 77.5 3.2 3.1 33.5-33.5c2.2-2.2 5.8-2.2 8 0s2.2 5.8 0 8l-37.4 37.4c-1.1 1.1-2.6 1.7-4 1.7s-2.9-.5-4-1.6l-17.6-17c-2.2-2.2-2.3-5.8-.1-8s5.8-2.3 8-.1" fill-rule="nonzero"/><path d="m50 71.9 1.7 1.6" fill-rule="nonzero"/></g></g></svg>

<?xml version="1.0" encoding="UTF-8"?>
<svg width="130px" height="149px" viewBox="0 0 130 149" version="1.1" xmlns="http://www.w3.org/2000/svg" xmlns:xlink="http://www.w3.org/1999/xlink">
    <!-- Generator: Sketch 51.2 (57519) - http://www.bohemiancoding.com/sketch -->
    <title>Shield</title>
    <desc>Created with Sketch.</desc>
    <defs></defs>
    <g id="Page-1" stroke="none" stroke-width="1" fill="none" fill-rule="evenodd">
        <g id="Shield" transform="translate(1.000000, 1.000000)">
            <path d="M127.1,21.9 L127.1,22.1 C126.8,57.7 125.4,80.8 116.9,99 C108.4,117.1 92.8,130.1 64.4,145.5 C64.2,145.6 64.1,145.7 63.9,145.7 C6.4,114.7 1.2,93.2 0.7,21.9 C1.2,21.9 1.8,21.9 2.3,21.9 C18.4,21.9 45,13.4 63.9,0.5 C83.4,13.9 111.2,22.6 127.1,21.9 Z" id="Shape" class="fill-neutral" fill-rule="nonzero"></path>
            <path d="M127.1,22.1 C126.8,57.7 125.4,80.8 116.9,99 C108.4,117.1 92.8,130.1 64.4,145.5 C64.3,145.4 64.3,145.3 64.4,145.3 C14,110.4 5.5,97.8 5,26.4 C20.9,27 46.8,16.8 66.4,3.5 L67.8,4.5 C85.9,16.8 110.9,21.9 127.1,22.1 Z" id="Shape" class="fill-primary-400" fill-rule="nonzero"></path>
            <path d="M127,31 C127,28.1 127.1,25 127.1,21.9 C111.2,22.5 83.5,13.9 63.9,0.6 C60.7,2.8 57.2,4.8 53.7,6.8" id="Shape" class="stroke-primary" stroke-width="2.9264" stroke-linecap="round" stroke-linejoin="round"></path>
            <path d="M126.8,40.4 C126.8,39.2 126.9,38 126.9,36.8" id="Shape" class="stroke-primary" stroke-width="2.9264" stroke-linecap="round" stroke-linejoin="round"></path>
            <path d="M44.8,11.1 C28.9,18.2 11.8,22.4 0.7,21.9 C1.2,93.2 6.4,114.7 63.9,145.7 C108.8,121.5 121.8,103.1 125.6,62.2" id="Shape" class="stroke-primary" stroke-width="2.9264" stroke-linecap="round" stroke-linejoin="round"></path>
            <path d="M116.8,31.6 C116.8,32 116.8,32.4 116.8,32.8 C116.3,62.1 114.4,80.4 107.7,94.7 C101,108.9 88.9,120.1 65.2,133.5 C64.8,133.7 64.3,134 63.9,134.3 C39.4,120.6 26.9,109.2 20.1,94.8 C13.3,80.3 11.4,61.7 10.9,31.7 C27.3,29.7 47.6,22.5 63.8,12.8 C65.1,13.6 66.4,14.3 67.7,15.1 C72.4,17.7 77.4,20.1 82.5,22.2 C82.5,22.2 82.5,22.2 82.5,22.2 C94.3,26.9 106.3,30.3 116.8,31.6 Z" id="Shape" class="fill-neutral" fill-rule="nonzero"></path>
            <path d="M116.8,32.8 C116.3,62.1 114.4,80.4 107.7,94.7 C101,108.9 88.9,120.1 65.2,133.5 C52.4,126.1 43.1,119.4 36.3,112.4 C31.3,107.2 27.6,101.9 24.9,96.1 C18.1,81.8 16.3,63.2 15.8,33.5 C31.9,31.5 51.8,24.5 67.8,15 C68,14.9 68.2,14.8 68.3,14.7 C72.8,17.4 77.6,19.9 82.6,22.2 C82.6,22.2 82.6,22.2 82.6,22.2 C90.9,25.9 99.5,29 107.7,31 C110.9,31.6 113.9,32.3 116.8,32.8 Z" id="Shape" class="fill-primary-100" fill-rule="nonzero"></path>
            <path d="M116.8,32.8 C116.3,62.1 114.4,80.4 107.7,94.7 C101,108.9 88.9,120.1 65.2,133.5 C52.4,126.1 43.1,119.4 36.3,112.4 C61.6,109.3 99.8,100.5 116,31.9 C119.1,32.6 113.9,32.3 116.8,32.8 Z" id="Shape" class="fill-primary-200" fill-rule="nonzero"></path>
            <path d="M15.6,81.9 C15.5,81.3 15.3,80.8 15.2,80.2" id="Shape" class="stroke-primary" stroke-width="2.9264" stroke-linecap="round" stroke-linejoin="round"></path>
            <path d="M13,67.9 C11.7,57.9 11.2,46.1 10.9,31.6 C27.3,29.6 47.6,22.4 63.8,12.7 C80,22.4 100.3,29.6 116.7,31.6 C116.2,61.6 114.4,80.2 107.5,94.7 C100.7,109.2 88.2,120.5 63.7,134.2 C39.2,120.5 26.7,109.1 19.9,94.7 C19.3,93.5 18.8,92.3 18.3,91" id="Shape" class="stroke-primary" stroke-width="2.9264" stroke-linecap="round" stroke-linejoin="round"></path>
            <path d="M55.9,77.5 L59.1,80.6 L92.6,47.1 C94.8,44.9 98.4,44.9 100.6,47.1 C102.8,49.3 102.8,52.9 100.6,55.1 L63.2,92.5 C62.1,93.6 60.6,94.2 59.2,94.2 C57.8,94.2 56.3,93.7 55.2,92.6 L37.6,75.6 C35.4,73.4 35.3,69.8 37.5,67.6 C39.7,65.4 43.3,65.3 45.5,67.5" id="Shape" class="stroke-primary" stroke-width="2.9264" class="fill-neutral" fill-rule="nonzero" stroke-linecap="round" stroke-linejoin="round"></path>
            <path d="M50,71.9 L51.7,73.5" id="Shape" class="stroke-primary" stroke-width="2.9264" class="fill-neutral" fill-rule="nonzero" stroke-linecap="round" stroke-linejoin="round"></path>
        </g>
    </g>
</svg>
